X: 18961
T: Inis Dhún Rámha
R: waltz
M: 3/4
K: Amixolydian
A2|c4c2|B3cd2|e3f e2|dBB3^G|
A4A2|Bcc2B2|G6|A4B2|
c4c2|B3cd2|e3f e2|dBB3^G|
A4A2|Bcc2B2|A6|A2z2c2|
e4e2|e3f^g2|a4c2|c2B2A2|
d4d2|dee2f2|e6|A2zA2|
c4c2|B3cd2|e3f e2|dBB3^G|
A4A2|B2c2B2|A6|A2z4|

